cssgg/pocket.svg

<svg
  width="24"
  height="24"
  viewBox="0 0 24 24"
  fill="none"
  xmlns="http://www.w3.org/2000/svg"
>
  <path
    fill-rule="evenodd"
    clip-rule="evenodd"
    d="M3 4H21V11C21 15.9706 16.9706 20 12 20C7.02944 20 3 15.9706 3 11V4ZM1 2H23V11C23 17.0751 18.0751 22 12 22C5.92487 22 1 17.0751 1 11V2ZM11.2929 14.6935C11.6834 15.084 12.3166 15.084 12.7071 14.6935L16.9497 10.4508C17.3403 10.0603 17.3403 9.42714 16.9497 9.03661C16.5592 8.64609 15.9261 8.64609 15.5355 9.03661L12 12.5721L8.46447 9.03661C8.07394 8.64609 7.44078 8.64609 7.05025 9.03661C6.65973 9.42714 6.65973 10.0603 7.05025 10.4508L11.2929 14.6935Z"
    fill="currentColor"
  />
</svg>

<svg viewBox="0 0 24 24" xmlns="http://www.w3.org/2000/svg"><path fill-rule="evenodd" d="M3 4h18v7c0 4.97-4.03 9-9 9 -4.98 0-9-4.03-9-9V4ZM1 2h22v9c0 6.07-4.93 11-11 11C5.92 22 1 17.07 1 11V2Zm10.29 12.69c.39.39 1.02.39 1.41 0l4.24-4.25c.39-.4.39-1.03 0-1.42 -.4-.4-1.03-.4-1.42 0l-3.54 3.53 -3.54-3.54c-.4-.4-1.03-.4-1.42 0 -.4.39-.4 1.02 0 1.41l4.24 4.24Z"/></svg>
